X: 10028
T: Diamond
R: waltz
M: 3/4
K: Dmajor
AG|"D"F2 d3 F|"Em"G3B AG|"D"FA de fg|"Bm"a2 f3d|
"G"B3 c d2|"D"A2 d3 F|"Em"G2 E3 F|"A7"G3 EAG|
"D"F2 d3 F|"Em"G3B AG|"D"FA de fg|"Bm"a2 f3d|
"G"B3 c d2|"D"A2 d2 (3EFG|"A7"F2 D3 D|1 "D"D3 A:|2 "D"D3 E||
|:FG|"D"A2 a3 a|"D/F#"a3 g (3fga|"Em"b2 e3 e|
"A7"e4 ag|"D"fg ab af|"Em"gf e3 d|"A7"c2 A3 B|A3 GFG|
[1 "D"A2 a3 a|"D/F#"a3 g (3fga|"Em"b2 e3 e|
"A7"e3f fe|"Bm"d3c cA|"G"G3F FG|"A7"A2 d3 c|"D"d3 G|
[2 "D"AD FA de|"D/F#"fg ab af|"Em"bg e3 e|
"A7"e3f fe|"Bm"d3c cA|"G"G3F FG|"A7"A2 d3 c|"G"d4||

